projects/svn/images/icons/pedestrian-man.svg

<svg width="16" height="17" viewBox="0 0 16 17" fill="none" xmlns="http://www.w3.org/2000/svg">
<g opacity="0.3" clip-path="url(#clip0_684_513)">
<path d="M11.6134 9.00512L10.0111 7.23762C9.91128 7.12758 9.81953 6.90086 9.81492 6.75221L9.75598 4.91824V4.86511C9.75598 4.58251 9.526 4.35254 9.24341 4.35254H7.67495H7.05166C6.79914 4.35254 6.5174 4.53143 6.40993 4.75986L4.29849 9.24483C4.24006 9.36922 4.23425 9.50812 4.28209 9.63644C4.32993 9.76458 4.42561 9.86573 4.55118 9.92108L4.86231 10.0583C4.92861 10.0875 4.99934 10.1024 5.07264 10.1024C5.27374 10.1024 5.46099 9.98806 5.55001 9.81122L6.5391 7.84347V9.8213C6.535 9.83275 6.52902 9.84317 6.52526 9.85479L4.85377 15.0895C4.78423 15.3075 4.80542 15.537 4.91357 15.7355C5.02172 15.934 5.20283 16.0762 5.42392 16.1358L5.53566 16.166C5.60878 16.1859 5.68464 16.1959 5.76085 16.1959C6.14544 16.1959 6.49484 15.9429 6.61068 15.5804L8.17248 10.6891L8.7264 12.0459C8.86154 12.3768 9.00745 12.9563 9.04504 13.3117L9.31004 15.8098C9.35258 16.2098 9.66884 16.5001 10.0621 16.5001C10.1266 16.5001 10.192 16.4922 10.2564 16.4767L10.369 16.4493C10.8173 16.3408 11.1341 15.8802 11.0752 15.4228L10.6827 12.3768C10.6328 11.9898 10.4659 11.3838 10.3106 11.0258L9.78058 9.80524C9.77374 9.78935 9.76401 9.775 9.75615 9.75962V8.93251L10.7112 9.92963C10.8062 10.0289 10.9333 10.0836 11.069 10.0836C11.2062 10.0836 11.3343 10.0279 11.4297 9.92672L11.6063 9.73912C11.7953 9.53837 11.7986 9.2093 11.6134 9.00512Z" fill="black"/>
<path d="M8.29028 3.91798C9.23272 3.91798 9.99935 3.15135 9.99935 2.2089C9.99935 1.26663 9.23272 0.5 8.29028 0.5C7.348 0.5 6.58154 1.26663 6.58154 2.2089C6.58137 3.15135 7.348 3.91798 8.29028 3.91798Z" fill="black"/>
</g>
<defs>
<clipPath id="clip0_684_513">
<rect width="16" height="16" fill="white" transform="translate(0 0.5)"/>
</clipPath>
</defs>
</svg>

<svg width="16" height="17" fill="none" xmlns="http://www.w3.org/2000/svg"><g opacity=".3" clip-path="url(#clip0_684_513)" fill="#000"><path d="M11.613 9.005l-1.602-1.767a.909.909 0 01-.196-.486l-.059-1.834v-.053a.513.513 0 00-.513-.512H7.052a.762.762 0 00-.642.407L4.298 9.245a.501.501 0 00.253.676l.311.137a.537.537 0 00.688-.247l.99-1.968v1.978c-.005.012-.011.022-.015.034l-1.671 5.234a.818.818 0 00.57 1.047l.112.03a.898.898 0 001.075-.586l1.561-4.89.554 1.356c.136.33.281.91.319 1.266l.265 2.498c.043.4.359.69.752.69a.85.85 0 00.194-.023l.113-.028a.956.956 0 00.706-1.026l-.392-3.046a6.008 6.008 0 00-.372-1.351l-.53-1.22c-.007-.017-.017-.031-.025-.046v-.827l.955.997a.492.492 0 00.719-.003l.176-.188a.55.55 0 00.007-.734zM8.29 3.918A1.71 1.71 0 0010 2.208 1.71 1.71 0 008.29.5a1.71 1.71 0 00-1.708 1.709A1.71 1.71 0 008.29 3.918z"/></g><defs><clipPath id="clip0_684_513"><path fill="#fff" transform="translate(0 .5)" d="M0 0h16v16H0z"/></clipPath></defs></svg>
